!!!OTL: Sir Hugh
!!!ONM: 8.
**kern
*clefG2
!Modal -- Conklin/Pearce 
*k[b-e-]
*c:
*M6/8
*MM80
{8g
=1
4f
8g
4e-
8c
=2
4B-
8c
4f}
{8g
=3
4f
8g
4e-
8f
=4
4.c
4r}
{8g
=5
4f
8g
4e-
8c
=6
4B-
8c
4e-}
{8g
=7
(8f
8e-)
8c
4e-
8f
=8
4.c
4.g
=9
(8f
8e-)
8c
4e-
8f
=10
[4.c
4c]}
==
*-
!!!CNT: Folksongs of Maritime Canada
!!!MRD: 1928///-1932///
!!!OCL: Helen Creighton
!!!YOR: Songs and Ballads from Nova Scotia
!!!PPR: J.M. Dent & Sons, Limited
!!!PPP: Toronto, Canada
!!!PDT: 1932///
!!!reprint: Dover Publications, 1992: ISBN 0-486-21703-5
!!!ENC1: Craig Stuart Sapp (music and bibliographic data)                       
!!!ENC2: Marcus Pearce (phrase markings and key designations)                   
!!!ENC3: Darrell Conklin (phrase markings and key designations)   
!!!END: 2002/04/10/
!!!EEV: 2004/06/05
!!!MPN: Mrs. William McNab
!!!PPG: 16
!!!EFL: 8/152
!!!ARE: Canada; Nova Scotia
!!!verses: 7
!!!VTS: 3109789417
